packages/components/src/components/icon/brand/ic-brand-smarttrader.svg

<?xml version="1.0" encoding="UTF-8"?>
<svg width="33px" height="33px" viewBox="0 0 33 33" version="1.1" xmlns="http://www.w3.org/2000/svg" xmlns:xlink="http://www.w3.org/1999/xlink">
    <!-- Generator: Sketch 64 (93537) - https://sketch.com -->
    <title>logo/smarttrader</title>
    <desc>Created with Sketch.</desc>
    <g id="Page-1" stroke="none" stroke-width="1" fill="none" fill-rule="evenodd">
        <g id="logo/smarttrader">
            <g id="logo_smart_trader">
                <g>
                    <g id="DMT5-mobile" fill="#2A3052">
                        <g id="DMT5-mobile-v2">
                            <g id="Group-13">
                                <g id="Group-9">
                                    <g id="Group-3">
                                        <g id="Group-7">
                                            <path d="M6.06955902,-5.63896583e-16 L26.3098876,-5.63896583e-16 C29.6620125,-5.63896583e-16 32.3794466,2.71743413 32.3794466,6.06955902 L32.3794466,26.3098876 C32.3794466,29.6620125 29.6620125,32.3794466 26.3098876,32.3794466 L6.06955902,32.3794466 C2.71743413,32.3794466 -5.63896583e-16,29.6620125 -5.63896583e-16,26.3098876 L-5.63896583e-16,6.06955902 C-5.63896583e-16,2.71743413 2.71743413,-5.63896583e-16 6.06955902,-5.63896583e-16" id="Fill-1"></path>
                                        </g>
                                    </g>
                                </g>
                            </g>
                        </g>
                    </g>
                    <path d="M19.7959048,13.7803116 L15.3516671,11.7677067 L16.0881407,15.4722964 L18.4753313,16.5674835 C20.1531358,17.3056725 20.9745654,19.2155205 20.356468,20.9411816 C19.7383706,22.6668428 17.8911686,23.6208402 16.1262342,23.1259087 C15.9466693,23.0824525 15.77137,23.022957 15.602449,22.9481392 L13.3327133,21.9037433 L9.84081221,23.6179493 L14.3866326,25.6845199 C17.6410041,27.0158491 21.365687,25.5368549 22.8202979,22.3356866 C24.2749088,19.1345182 22.9392019,15.3560829 19.7959048,13.7803116 Z" id="Path" fill="#FFFFFF" fill-rule="nonzero"></path>
                    <path d="M13.9231621,15.894499 C12.2327363,15.1638569 11.4002888,13.2460252 12.0210038,11.5122172 C12.6417188,9.77840928 14.502209,8.82466755 16.2722592,9.33289933 C16.4514007,9.37780414 16.6265775,9.43725809 16.7960443,9.51066884 L19.0880012,10.5518903 L22.5799023,8.83768426 L18.0372565,6.77111369 C17.6985916,6.6227672 17.3481988,6.50278422 16.9896861,6.41240022 C13.7335802,5.62749048 10.4099975,7.42594328 9.28591184,10.5810566 C8.16182618,13.73617 9.59956329,17.2309585 12.6184608,18.6816709 L17.0626986,20.6942757 L16.3071782,16.9642905 L13.9231621,15.894499 Z" id="Path" fill="#FFFFFF" fill-rule="nonzero"></path>
                </g>
            </g>
        </g>
    </g>
</svg>

<svg width="33" height="33" xmlns="http://www.w3.org/2000/svg"><g fill="none" fill-rule="evenodd"><path d="M6.07 0h20.24a6.07 6.07 0 016.07 6.07v20.24a6.07 6.07 0 01-6.07 6.07H6.07A6.07 6.07 0 010 26.31V6.07A6.07 6.07 0 016.07 0" fill="#2A3052"/><path d="M19.796 13.78l-4.444-2.012.736 3.704 2.387 1.095a3.492 3.492 0 01-2.349 6.559 3.086 3.086 0 01-.524-.178l-2.27-1.044-3.491 1.714 4.546 2.067a6.543 6.543 0 005.409-11.905z" fill="#FFF" fill-rule="nonzero"/><path d="M13.923 15.894a3.492 3.492 0 012.35-6.561c.178.045.354.104.523.178l2.292 1.04 3.492-1.713-4.543-2.067a6.682 6.682 0 00-1.047-.359 6.549 6.549 0 00-4.372 12.27l4.445 2.012-.756-3.73-2.384-1.07z" fill="#FFF" fill-rule="nonzero"/></g></svg>
